X: 15
T:Miss Baker's Hornpipe. WM.015
M:4/4
L:1/8
Q:180
S:Wm.Mittell's MS,New Romney,Kent,1799
R:Hornpipe
O:England
A:Kent
Z:vmp.Chris Partington
K:F
c-B|A2F2FAGF|EFGAB2AG|Acde fcdB|A2F2F2:|!
|:(3cde|fcAc fagf|gece gbag|afge fdgf|e2c2c2(fe)|!
(dc)(BA)B2(ba)|(gf)(ed)c2BA|Bcde fcdB|A2F2F2:||
